; generated by PrusaSlicer 2.3.0+ on 2021-03-02 at 16:14:16 UTC

; 

; external perimeters extrusion width = 0.45mm
; perimeters extrusion width = 0.45mm
; infill extrusion width = 0.45mm
; solid infill extrusion width = 0.45mm
; top infill extrusion width = 0.40mm
; first layer extrusion width = 0.42mm

M73 P0 R64
M73 Q0 S64
M201 X1000 Y1000 Z200 E5000 ; sets maximum accelerations, mm/sec^2
M203 X200 Y200 Z12 E120 ; sets maximum feedrates, mm/sec
M204 P1250 R1250 T1250 ; sets acceleration (P, T) and retract acceleration (R), mm/sec^2
M205 X8.00 Y8.00 Z0.40 E4.50 ; sets the jerk limits, mm/sec
M205 S0 T0 ; sets the minimum extruding and travel feed rate, mm/sec
M107
;TYPE:Custom
M862.3 P "MK3S" ; printer model check
M862.1 P0.4 ; nozzle diameter check
M115 U3.9.2 ; tell printer latest fw version
G90 ; use absolute coordinates
M83 ; extruder relative mode
M104 S215 ; set extruder temp
M140 S60 ; set bed temp
M190 S60 ; wait for bed temp
M109 S215 ; wait for extruder temp
G28 W ; home all without mesh bed level
G80 ; mesh bed leveling
G1 Y-3.0 F1000.0 ; go outside print area
G92 E0.0
G1 X60.0 E9.0 F1000.0 ; intro line
G1 X100.0 E12.5 F1000.0 ; intro line
G92 E0.0
M221 S95

; Don't change E values below. Excessive value can damage the printer.

M907 E538 ; set extruder motor current
G21 ; set units to millimeters
G90 ; use absolute coordinates
M83 ; use relative distances for extrusion
M900 K0.05 ; Filament gcode LA 1.5
M900 K30 ; Filament gcode LA 1.0
;LAYER_CHANGE
;Z:0.2
;HEIGHT:0.2
;BEFORE_LAYER_CHANGE
G92 E0.0
;0.2


M73 P0 R63
G1 E-0.80000 F2100.000
G1 Z0.400 F10800.000
;AFTER_LAYER_CHANGE
;0.2
G1 X80.812 Y81.041
G1 Z0.200
G1 E0.80000 F2100.000
M204 S1000
;TYPE:Skirt
;WIDTH:0.42
G1 F1200.000
G1 X81.834 Y80.131 E0.04290
G1 X82.771 Y79.450 E0.03630
G1 X84.024 Y78.722 E0.04547
G1 X85.013 Y78.271 E0.03407
G1 X86.141 Y77.873 E0.03751
G1 X87.582 Y77.530 E0.04643
G1 X88.619 Y77.388 E0.03282
G1 X89.860 Y77.332 E0.03896
G1 X91.146 Y77.396 E0.04035
G1 X92.428 Y77.596 E0.04068
G1 X93.675 Y77.917 E0.04038
G1 X94.814 Y78.334 E0.03805
G1 X95.727 Y78.762 E0.03161
G1 X96.995 Y79.511 E0.04617
G1 X98.084 Y80.329 E0.04271
G1 X98.892 Y81.072 E0.03441
G1 X99.727 Y81.985 E0.03881
G1 X100.516 Y83.045 E0.04143
G1 X101.215 Y84.228 E0.04310
G1 X101.642 Y85.129 E0.03127
G1 X102.089 Y86.343 E0.04054
G1 X102.393 Y87.512 E0.03787
G1 X102.596 Y88.789 E0.04054
G1 X102.669 Y90.073 E0.04033
G1 X102.619 Y91.316 E0.03901
G1 X102.484 Y92.343 E0.03247
G1 X102.203 Y93.587 E0.03999
G1 X101.805 Y94.794 E0.03987
G1 X101.311 Y95.911 E0.03830
G1 X100.582 Y97.179 E0.04585
G1 X99.850 Y98.188 E0.03908
G1 X99.106 Y99.039 E0.03544
G1 X98.113 Y99.972 E0.04274
G1 X97.058 Y100.771 E0.04150
G1 X96.046 Y101.393 E0.03722
G1 X94.998 Y101.913 E0.03667
G1 X93.703 Y102.400 E0.04339
G1 X92.734 Y102.664 E0.03148
G1 X91.297 Y102.912 E0.04572
G1 X90.048 Y102.994 E0.03924
G1 X88.872 Y102.958 E0.03690
G1 X87.683 Y102.814 E0.03756
G1 X86.264 Y102.488 E0.04567
G1 X85.321 Y102.175 E0.03113
G1 X84.065 Y101.625 E0.04301
G1 X82.875 Y100.943 E0.04301
G1 X82.029 Y100.347 E0.03245
G1 X80.971 Y99.440 E0.04368
G1 X80.016 Y98.423 E0.04376
G1 X79.182 Y97.315 E0.04347
G1 X78.669 Y96.483 E0.03066
G1 X78.051 Y95.240 E0.04353
G1 X77.572 Y93.938 E0.04348
G1 X77.312 Y92.958 E0.03180
G1 X77.076 Y91.520 E0.04567
G1 X77.004 Y90.183 E0.04200
M73 Q0 S63
G1 X77.056 Y89.006 E0.03694
G1 X77.251 Y87.656 E0.04277
G1 X77.572 Y86.392 E0.04089
G1 X77.995 Y85.220 E0.03905
G1 X78.523 Y84.106 E0.03864
G1 X79.197 Y82.993 E0.04080
G1 X79.962 Y81.967 E0.04013
G1 X80.772 Y81.085 E0.03753
G1 X81.049 Y81.341 F10800.000
G1 F1200.000
G1 X82.073 Y80.423 E0.04313
G1 X82.975 Y79.767 E0.03497
G1 X84.200 Y79.055 E0.04442
G1 X85.155 Y78.620 E0.03290
G1 X86.246 Y78.235 E0.03627
G1 X87.650 Y77.901 E0.04526
G1 X88.653 Y77.763 E0.03175
G1 X89.860 Y77.709 E0.03786
G1 X91.109 Y77.772 E0.03921
G1 X92.353 Y77.965 E0.03950
G1 X93.561 Y78.277 E0.03910
G1 X94.668 Y78.682 E0.03696
G1 X95.548 Y79.093 E0.03045
G1 X96.783 Y79.823 E0.04499
G1 X97.844 Y80.621 E0.04161
G1 X98.626 Y81.339 E0.03330
G1 X99.436 Y82.224 E0.03761
G1 X100.204 Y83.257 E0.04037
G1 X100.884 Y84.408 E0.04189
G1 X101.295 Y85.276 E0.03011
G1 X101.728 Y86.454 E0.03936
G1 X102.023 Y87.586 E0.03668
G1 X102.222 Y88.829 E0.03949
G1 X102.292 Y90.077 E0.03917
G1 X102.113 Y92.275 E0.06915
G1 X101.841 Y93.484 E0.03886
G1 X101.454 Y94.655 E0.03867
G1 X100.974 Y95.742 E0.03724
G1 X100.264 Y96.978 E0.04471
G1 X99.555 Y97.953 E0.03782
G1 X98.836 Y98.775 E0.03422
G1 X97.868 Y99.685 E0.04168
G1 X96.841 Y100.463 E0.04037
G1 X95.863 Y101.063 E0.03600
G1 X94.847 Y101.567 E0.03555
G1 X93.584 Y102.042 E0.04232
G1 X92.654 Y102.296 E0.03021
G1 X91.254 Y102.537 E0.04454
G1 X90.045 Y102.617 E0.03798
G1 X88.902 Y102.582 E0.03586
G1 X87.748 Y102.442 E0.03646
G1 X86.362 Y102.124 E0.04459
G1 X85.460 Y101.824 E0.02980
G1 X84.235 Y101.288 E0.04192
G1 X83.078 Y100.625 E0.04180
G1 X82.263 Y100.051 E0.03126
G1 X81.236 Y99.172 E0.04239
G1 X80.317 Y98.195 E0.04207
G1 X79.619 Y97.283 E0.03600
G1 X79.012 Y96.325 E0.03556
G1 X78.398 Y95.091 E0.04321
G1 X77.999 Y94.034 E0.03544
G1 X77.682 Y92.882 E0.03744
G1 X77.451 Y91.479 E0.04459
G1 X77.381 Y90.182 E0.04072
G1 X77.431 Y89.043 E0.03578
G1 X77.621 Y87.730 E0.04159
G1 X77.933 Y86.500 E0.03977
G1 X78.344 Y85.364 E0.03788
G1 X78.866 Y84.265 E0.03816
G1 X79.648 Y82.998 E0.04667
G1 X80.269 Y82.188 E0.03202
G1 X81.008 Y81.385 E0.03422
; printing object 02087d1b-10aa-406e-8989-c7e97f287d64.stl id:0 copy 0
;WIPE_START
G1 F8640.000
G1 X82.073 Y80.423 E-0.33138
G1 X82.975 Y79.767 E-0.25751
G1 X83.616 Y79.395 E-0.17112
;WIPE_END
G1 E-0.04000 F2100.000
G1 Z0.600 F10800.000
G1 X83.341 Y83.615
G1 Z0.200
G1 E0.80000 F2100.000
;TYPE:Perimeter
G1 F1200.000
G1 X84.154 Y82.889 E0.03418
G1 X84.837 Y82.404 E0.02626
G1 X85.622 Y81.951 E0.02842
G1 X86.360 Y81.612 E0.02546
G1 X87.145 Y81.333 E0.02612
G1 X88.031 Y81.111 E0.02863
G1 X88.831 Y80.987 E0.02540
G1 X89.766 Y80.935 E0.02937
G1 X90.579 Y80.963 E0.02548
G1 X91.306 Y81.049 E0.02296
G1 X91.942 Y81.179 E0.02036
G1 X92.847 Y81.438 E0.02952
G1 X93.599 Y81.735 E0.02536
G1 X94.457 Y82.171 E0.03017
G1 X95.118 Y82.592 E0.02457
G1 X95.816 Y83.130 E0.02763
G1 X96.449 Y83.721 E0.02714
G1 X96.989 Y84.327 E0.02547
G1 X97.505 Y85.023 E0.02715
G1 X97.958 Y85.775 E0.02753
G1 X98.359 Y86.621 E0.02936
G1 X98.638 Y87.385 E0.02549
G1 X98.830 Y88.078 E0.02254
G1 X98.952 Y88.729 E0.02078
G1 X99.054 Y89.665 E0.02951
G1 X99.061 Y90.474 E0.02537
G1 X98.984 Y91.406 E0.02934
G1 X98.830 Y92.248 E0.02682
G1 X98.615 Y93.019 E0.02511
G1 X98.303 Y93.842 E0.02759
G1 X97.936 Y94.592 E0.02617
G1 X97.516 Y95.286 E0.02543
G1 X96.984 Y96.005 E0.02806
G1 X96.335 Y96.716 E0.03018
G1 X95.816 Y97.196 E0.02216
G1 X95.305 Y97.595 E0.02034
G1 X94.553 Y98.096 E0.02832
G1 X93.761 Y98.518 E0.02814
G1 X93.035 Y98.820 E0.02464
G1 X92.178 Y99.091 E0.02819
G1 X91.301 Y99.277 E0.02813
G1 X90.518 Y99.368 E0.02471
G1 X89.730 Y99.392 E0.02472
G1 X88.833 Y99.338 E0.02817
G1 X87.947 Y99.198 E0.02811
G1 X87.148 Y98.993 E0.02589
G1 X86.337 Y98.704 E0.02697
G1 X85.622 Y98.375 E0.02470
G1 X84.845 Y97.927 E0.02813
G1 X84.116 Y97.406 E0.02807
G1 X83.438 Y96.812 E0.02828
G1 X82.965 Y96.325 E0.02127
G1 X82.534 Y95.802 E0.02125
G1 X82.017 Y95.063 E0.02829
G1 X81.554 Y94.236 E0.02971
G1 X81.257 Y93.563 E0.02305
G1 X80.966 Y92.712 E0.02822
G1 X80.760 Y91.838 E0.02815
G1 X80.645 Y91.009 E0.02622
G1 X80.606 Y90.163 E0.02658
G1 X80.644 Y89.331 E0.02611
G1 X80.765 Y88.460 E0.02756
G1 X80.958 Y87.639 E0.02645
G1 X81.262 Y86.752 E0.02939
G1 X81.594 Y86.011 E0.02548
G1 X81.959 Y85.353 E0.02359
G1 X82.446 Y84.633 E0.02726
G1 X82.885 Y84.092 E0.02186
G1 X83.299 Y83.659 E0.01878
G1 X83.027 Y83.398 F10800.000
;TYPE:External perimeter
G1 F1200.000
G1 X83.187 Y83.230 E0.00727
G1 X83.920 Y82.593 E0.03047
G1 X84.633 Y82.086 E0.02740
G1 X85.448 Y81.616 E0.02953
G1 X86.218 Y81.262 E0.02654
G1 X87.036 Y80.972 E0.02722
G1 X87.956 Y80.741 E0.02974
G1 X88.791 Y80.612 E0.02652
G1 X89.762 Y80.557 E0.03049
G1 X90.607 Y80.587 E0.02651
G1 X91.366 Y80.677 E0.02395
G1 X92.032 Y80.813 E0.02131
G1 X92.969 Y81.080 E0.03056
G1 X93.755 Y81.391 E0.02650
G1 X94.645 Y81.843 E0.03130
G1 X95.335 Y82.283 E0.02567
G1 X96.061 Y82.842 E0.02872
G1 X96.719 Y83.457 E0.02825
G1 X97.282 Y84.089 E0.02654
G1 X97.819 Y84.813 E0.02825
G1 X98.291 Y85.596 E0.02868
G1 X98.707 Y86.475 E0.03049
G1 X98.998 Y87.269 E0.02652
G1 X99.197 Y87.992 E0.02352
G1 X99.326 Y88.674 E0.02173
G1 X99.431 Y89.642 E0.03056
G1 X99.439 Y90.488 E0.02650
G1 X99.358 Y91.456 E0.03046
G1 X99.198 Y92.332 E0.02794
G1 X98.973 Y93.137 E0.02618
G1 X98.650 Y93.992 E0.02868
G1 X98.267 Y94.773 E0.02725
G1 X97.829 Y95.496 E0.02650
G1 X97.275 Y96.245 E0.02922
G1 X96.603 Y96.982 E0.03129
G1 X96.061 Y97.483 E0.02315
G1 X95.526 Y97.901 E0.02128
G1 X94.747 Y98.420 E0.02935
G1 X93.922 Y98.859 E0.02928
G1 X93.165 Y99.175 E0.02572
G1 X92.274 Y99.456 E0.02929
G1 X91.362 Y99.649 E0.02926
G1 X90.545 Y99.745 E0.02576
G1 X89.724 Y99.769 E0.02575
G1 X88.792 Y99.714 E0.02928
G1 X87.871 Y99.568 E0.02924
G1 X87.037 Y99.354 E0.02699
G1 X86.195 Y99.054 E0.02804
G1 X85.449 Y98.710 E0.02577
G1 X84.640 Y98.244 E0.02925
G1 X83.882 Y97.702 E0.02923
G1 X83.178 Y97.086 E0.02934
G1 X82.683 Y96.577 E0.02224
G1 X82.234 Y96.030 E0.02220
G1 X81.697 Y95.263 E0.02934
G1 X81.216 Y94.405 E0.03087
G1 X80.906 Y93.700 E0.02412
G1 X80.603 Y92.816 E0.02930
G1 X80.389 Y91.907 E0.02929
G1 X80.269 Y91.044 E0.02732
G1 X80.229 Y90.163 E0.02766
G1 X80.268 Y89.296 E0.02720
G1 X80.394 Y88.391 E0.02866
G1 X80.596 Y87.535 E0.02758
G1 X80.911 Y86.614 E0.03052
G1 X81.257 Y85.842 E0.02652
G1 X81.636 Y85.156 E0.02458
G1 X82.145 Y84.405 E0.02844
G1 X82.602 Y83.842 E0.02274
G1 X82.985 Y83.441 E0.01738
G1 X83.253 Y83.450 F10800.000
;WIPE_START
G1 F8640.000
G1 X83.187 Y83.230 E-0.06740
G1 X83.920 Y82.593 E-0.22440
G1 X84.633 Y82.086 E-0.20180
G1 X85.448 Y81.616 E-0.21748
G1 X85.641 Y81.527 E-0.04892
;WIPE_END
G1 E-0.04000 F2100.000
G1 Z0.600 F10800.000
G1 X94.934 Y82.609
G1 Z0.200
G1 E0.80000 F2100.000
;TYPE:Solid infill
;WIDTH:0.423509
G1 F1200.000
G1 X96.265 Y83.940 E0.05958
G1 X96.770 Y84.506 E0.02399
G1 X97.270 Y85.180 E0.02657
G1 X97.720 Y85.933 E0.02776
G1 X94.087 Y82.300 E0.16259
G1 X93.483 Y81.993 E0.02144
G1 X93.084 Y81.835 E0.01358
G1 X98.166 Y86.918 E0.22744
G1 X98.369 Y87.471 E0.01865
G1 X98.440 Y87.730 E0.00850
G1 X92.280 Y81.570 E0.27570
G1 X91.875 Y81.454 E0.01334
G1 X91.562 Y81.390 E0.01009
G1 X98.610 Y88.438 E0.31540
G1 X98.705 Y89.071 E0.02027
G1 X90.923 Y81.289 E0.34830
G1 X90.333 Y81.238 E0.01872
G1 X98.770 Y89.675 E0.37760
G1 X98.776 Y90.219 E0.01722
G1 X89.775 Y81.218 E0.40282
G1 X89.265 Y81.246 E0.01617
G1 X98.756 Y90.737 E0.42474
G1 X98.714 Y91.233 E0.01578
G1 X88.765 Y81.284 E0.44529
G1 X88.299 Y81.356 E0.01493
G1 X98.643 Y91.700 E0.46294
G1 X98.559 Y92.155 E0.01464
G1 X87.852 Y81.447 E0.47920
G1 X87.422 Y81.555 E0.01404
G1 X98.444 Y92.578 E0.49331
G1 X98.322 Y92.994 E0.01372
G1 X87.009 Y81.681 E0.50629
G1 X86.612 Y81.822 E0.01334
G1 X98.174 Y93.384 E0.51745
G1 X98.023 Y93.771 E0.01315
G1 X86.233 Y81.981 E0.52765
G1 X85.864 Y82.151 E0.01284
G1 X97.846 Y94.133 E0.53624
G1 X97.666 Y94.491 E0.01269
G1 X85.514 Y82.339 E0.54385
G1 X85.173 Y82.536 E0.01247
G1 X97.463 Y94.827 E0.55004
G1 X97.258 Y95.159 E0.01237
G1 X84.844 Y82.746 E0.55556
G1 X84.530 Y82.969 E0.01221
G1 X97.029 Y95.469 E0.55940
G1 X96.800 Y95.778 E0.01218
G1 X84.225 Y83.203 E0.56280
G1 X83.937 Y83.453 E0.01207
G1 X96.547 Y96.064 E0.56438
M73 P1 R63
M73 Q1 S63
G1 X96.291 Y96.345 E0.01206
G1 X83.649 Y83.703 E0.56577
G1 X83.385 Y83.978 E0.01205
G1 X96.025 Y96.617 E0.56568
G1 X95.745 Y96.876 E0.01205
G1 X83.122 Y84.253 E0.56494
G1 X82.883 Y84.552 E0.01212
G1 X95.452 Y97.121 E0.56251
G1 X95.150 Y97.357 E0.01213
G1 X82.647 Y84.854 E0.55958
G1 X82.422 Y85.168 E0.01221
G1 X94.828 Y97.573 E0.55520
G1 X94.505 Y97.788 E0.01228
G1 X82.207 Y85.490 E0.55039
G1 X82.014 Y85.836 E0.01252
G1 X94.162 Y97.984 E0.54366
G1 X93.811 Y98.171 E0.01259
G1 X81.826 Y86.186 E0.53637
G1 X81.659 Y86.558 E0.01289
G1 X93.445 Y98.343 E0.52745
G1 X93.065 Y98.501 E0.01302
G1 X81.498 Y86.935 E0.51765
G1 X81.361 Y87.336 E0.01341
G1 X92.666 Y98.641 E0.50593
G1 X92.257 Y98.770 E0.01357
G1 X81.225 Y87.739 E0.49370
G1 X81.123 Y88.174 E0.01416
G1 X91.825 Y98.877 E0.47899
G1 X91.381 Y98.971 E0.01437
G1 X81.028 Y88.618 E0.46333
G1 X80.963 Y89.091 E0.01510
G1 X90.910 Y99.038 E0.44518
G1 X90.422 Y99.088 E0.01552
G1 X80.916 Y89.582 E0.42545
G1 X80.892 Y90.097 E0.01632
G1 X89.899 Y99.104 E0.40310
G1 X89.343 Y99.085 E0.01762
G1 X80.912 Y90.655 E0.37732
G1 X80.927 Y90.984 E0.01042
G1 X80.963 Y91.244 E0.00831
G1 X88.760 Y99.040 E0.34893
G1 X88.120 Y98.939 E0.02050
G1 X81.060 Y91.879 E0.31597
G1 X81.226 Y92.584 E0.02291
G1 X87.412 Y98.769 E0.27682
G1 X87.230 Y98.722 E0.00593
G1 X86.603 Y98.499 E0.02106
G1 X81.498 Y93.394 E0.22848
G1 X81.807 Y94.110 E0.02467
G1 X81.974 Y94.408 E0.01081
G1 X85.605 Y98.038 E0.16248
G1 X84.998 Y97.689 E0.02216
G1 X84.292 Y97.184 E0.02745
G1 X83.651 Y96.623 E0.02696
G1 X82.304 Y95.276 E0.06028
; stop printing object 02087d1b-10aa-406e-8989-c7e97f287d64.stl id:0 copy 0
M106 S84.15
;LAYER_CHANGE
;Z:0.35
;HEIGHT:0.15
;BEFORE_LAYER_CHANGE
G92 E0.0
;0.35


;WIPE_START
G1 F8640.000
G1 X83.651 Y96.623 E-0.43980
G1 X84.292 Y97.184 E-0.19669
G1 X84.727 Y97.495 E-0.12350
;WIPE_END
G1 E-0.04000 F2100.000
G1 Z0.600 F10800.000
;AFTER_LAYER_CHANGE
;0.35
G1 X82.029 Y100.347
G1 Z0.350
G1 E0.80000 F2100.000
;TYPE:Skirt
;WIDTH:0.42
G1 F3000.000
G1 X80.971 Y99.440 E0.03370
G1 X80.016 Y98.423 E0.03375
G1 X79.182 Y97.315 E0.03353
G1 X78.669 Y96.483 E0.02365
G1 X78.051 Y95.240 E0.03357
G1 X77.572 Y93.938 E0.03354
G1 X77.312 Y92.958 E0.02453
G1 X77.076 Y91.520 E0.03522
G1 X77.004 Y90.183 E0.03240
G1 X77.056 Y89.006 E0.02850
G1 X77.251 Y87.656 E0.03299
G1 X77.572 Y86.392 E0.03154
G1 X77.995 Y85.220 E0.03012
G1 X78.523 Y84.106 E0.02981
G1 X79.197 Y82.993 E0.03147
G1 X79.962 Y81.967 E0.03096
G1 X80.812 Y81.041 E0.03040
G1 X81.834 Y80.131 E0.03309
G1 X82.771 Y79.450 E0.02800
G1 X84.024 Y78.722 E0.03507
G1 X85.013 Y78.271 E0.02628
G1 X86.141 Y77.873 E0.02893
G1 X87.582 Y77.530 E0.03581
G1 X88.619 Y77.388 E0.02532
G1 X89.860 Y77.332 E0.03005
G1 X91.146 Y77.396 E0.03113
G1 X92.428 Y77.596 E0.03138
G1 X93.675 Y77.917 E0.03115
G1 X94.814 Y78.334 E0.02935
G1 X95.727 Y78.762 E0.02438
G1 X96.995 Y79.511 E0.03561
G1 X98.084 Y80.329 E0.03294
G1 X98.892 Y81.072 E0.02654
G1 X99.727 Y81.985 E0.02993
G1 X100.516 Y83.045 E0.03196
G1 X101.215 Y84.228 E0.03324
G1 X101.642 Y85.129 E0.02412
G1 X102.089 Y86.343 E0.03127
G1 X102.393 Y87.512 E0.02921
G1 X102.596 Y88.789 E0.03127
G1 X102.669 Y90.073 E0.03111
G1 X102.619 Y91.316 E0.03009
G1 X102.484 Y92.343 E0.02504
G1 X102.203 Y93.587 E0.03084
G1 X101.805 Y94.794 E0.03075
G1 X101.311 Y95.911 E0.02954
G1 X100.582 Y97.179 E0.03536
G1 X99.850 Y98.188 E0.03014
G1 X99.106 Y99.039 E0.02734
G1 X98.113 Y99.972 E0.03297
G1 X97.058 Y100.771 E0.03201
G1 X96.046 Y101.393 E0.02871
G1 X94.998 Y101.913 E0.02828
G1 X93.703 Y102.400 E0.03347
G1 X92.734 Y102.664 E0.02428
G1 X91.297 Y102.912 E0.03527
G1 X90.048 Y102.994 E0.03027
G1 X88.872 Y102.958 E0.02846
G1 X87.683 Y102.814 E0.02897
G1 X86.264 Y102.488 E0.03523
G1 X85.321 Y102.175 E0.02401
G1 X84.065 Y101.625 E0.03317
G1 X82.875 Y100.943 E0.03317
G1 X82.078 Y100.381 E0.02358
G1 X82.295 Y100.074 F10800.000
G1 F3000.000
G1 X81.236 Y99.172 E0.03362
G1 X80.317 Y98.195 E0.03245
G1 X79.619 Y97.283 E0.02777
G1 X79.012 Y96.325 E0.02743
G1 X78.398 Y95.091 E0.03333
G1 X77.999 Y94.034 E0.02733
G1 X77.682 Y92.882 E0.02888
G1 X77.451 Y91.479 E0.03439
G1 X77.381 Y90.182 E0.03141
G1 X77.431 Y89.043 E0.02759
G1 X77.621 Y87.730 E0.03208
G1 X77.933 Y86.500 E0.03067
G1 X78.344 Y85.364 E0.02922
G1 X78.866 Y84.265 E0.02944
G1 X79.648 Y82.998 E0.03600
G1 X80.269 Y82.188 E0.02470
G1 X81.079 Y81.308 E0.02892
G1 X82.073 Y80.423 E0.03219
G1 X82.975 Y79.767 E0.02697
G1 X84.200 Y79.055 E0.03427
G1 X85.155 Y78.620 E0.02538
G1 X86.246 Y78.235 E0.02798
G1 X87.650 Y77.901 E0.03491
G1 X88.653 Y77.763 E0.02449
G1 X89.860 Y77.709 E0.02921
